src/assets/img/svg/user.svg

<svg width="26" height="29" viewBox="0 0 26 29" fill="none" xmlns="http://www.w3.org/2000/svg">
<g clip-path="url(#clip0_0_51)">
<path d="M13 12.9C9.4 12.9 6.5 10 6.5 6.4C6.5 2.8 9.4 0 13 0C16.6 0 19.5 2.9 19.5 6.5C19.5 10.1 16.6 12.9 13 12.9ZM13 2C10.5 2 8.5 4 8.5 6.5C8.5 9 10.5 11 13 11C15.5 11 17.5 9 17.5 6.5C17.5 4 15.5 2 13 2Z" fill="#ffa501"/>
<path d="M23.2 28.9999H2.79997C1.99997 28.9999 1.29997 28.6999 0.799971 28.0999C0.299971 27.4999 -2.92808e-05 26.6999 0.0999707 25.8999L0.599971 20.6999C0.799971 17.9999 2.89997 16.7999 3.79997 16.2999L3.99997 16.0999C4.69997 15.6999 6.39997 15.0999 8.09997 14.7999C8.89997 14.6999 9.59997 14.7999 10.2 15.1999C11.9 16.3999 14.1 16.3999 15.7 15.1999C16.3 14.7999 17 14.5999 17.8 14.7999C19.6 15.0999 21.2 15.6999 21.9 16.0999L22.2 16.2999C23.2 16.8999 25.2 17.9999 25.4 20.6999L25.9 25.8999C26 26.6999 25.7 27.4999 25.2 28.0999C24.7 28.6999 24 28.9999 23.2 28.9999ZM8.69997 16.6999C8.59997 16.6999 8.59997 16.6999 8.49997 16.6999C6.59997 17.0999 5.29997 17.5999 5.09997 17.6999C4.99997 17.8999 4.89997 17.8999 4.69997 17.9999C3.79997 18.4999 2.59997 19.1999 2.39997 20.8999L1.99997 26.0999C1.99997 26.2999 2.09997 26.5999 2.19997 26.7999C2.39997 26.8999 2.59997 26.9999 2.79997 26.9999H23.2C23.4 26.9999 23.6 26.8999 23.8 26.6999C24 26.4999 24 26.2999 24 25.9999L23.5 20.7999C23.4 19.1999 22.1 18.4999 21.2 17.8999C21.1 17.7999 21 17.7999 20.9 17.6999C20.6 17.4999 19.4 16.9999 17.5 16.6999C17.3 16.6999 17.1 16.6999 17 16.7999C14.7 18.4999 11.4 18.4999 9.09997 16.7999C8.99997 16.7999 8.79997 16.6999 8.69997 16.6999Z" fill="#ffa501"/>
</g>
<defs>
<clipPath id="clip0_0_51">
<rect width="26" height="29" fill="white"/>
</clipPath>
</defs>
</svg>

<svg xmlns="http://www.w3.org/2000/svg" width="26" height="29" fill="none" viewBox="0 0 26 29"><g fill="#ffa501" clip-path="url(#a)"><path d="M13 12.9c-3.6 0-6.5-2.9-6.5-6.5S9.4 0 13 0s6.5 2.9 6.5 6.5-2.9 6.4-6.5 6.4M13 2c-2.5 0-4.5 2-4.5 4.5s2 4.5 4.5 4.5 4.5-2 4.5-4.5S15.5 2 13 2M23.2 29H2.8c-.8 0-1.5-.3-2-.9S0 26.7.1 25.9l.5-5.2c.2-2.7 2.3-3.9 3.2-4.4l.2-.2c.7-.4 2.4-1 4.1-1.3.8-.1 1.5 0 2.1.4 1.7 1.2 3.9 1.2 5.5 0 .6-.4 1.3-.6 2.1-.4 1.8.3 3.4.9 4.1 1.3l.3.2c1 .6 3 1.7 3.2 4.4l.5 5.2c.1.8-.2 1.6-.7 2.2s-1.2.9-2 .9M8.7 16.7h-.2c-1.9.4-3.2.9-3.4 1-.1.2-.2.2-.4.3-.9.5-2.1 1.2-2.3 2.9L2 26.1c0 .2.1.5.2.7.2.1.4.2.6.2h20.4q.3 0 .6-.3c.2-.2.2-.4.2-.7l-.5-5.2c-.1-1.6-1.4-2.3-2.3-2.9-.1-.1-.2-.1-.3-.2-.3-.2-1.5-.7-3.4-1-.2 0-.4 0-.5.1-2.3 1.7-5.6 1.7-7.9 0-.1 0-.3-.1-.4-.1"/></g><defs><clipPath id="a"><path fill="#fff" d="M0 0h26v29H0z"/></clipPath></defs></svg>
